X: 18313
T: Humours Of Tullycrine, The
R: hornpipe
M: 4/4
K: Adorian
|:ed|cAAB cBcd|eaag e2dB|c2 (3ABc BAGA|Bdde dBAG|
EAAB cBcd|eaag e2dB|c2 (3ABc dBGA|BAAG A2:|
|:cd|eaab aged|eaab aged|egga ged2|(3efg(3fga gedB|
AGAB cBcd|eaag e2dB|c2 (3ABc dBGA|BAAG A2:|

